img/icons/lk01.svg

<svg width="32" height="32" viewBox="0 0 32 32" fill="none" xmlns="http://www.w3.org/2000/svg">
<g style="mix-blend-mode:multiply">
<path fill-rule="evenodd" clip-rule="evenodd" d="M16 27.0758C9.92487 27.0758 5 22.117 5 16C5 9.883 9.92487 4.92419 16 4.92419C22.0751 4.92419 27 9.883 27 16C27 22.117 22.0751 27.0758 16 27.0758ZM23.3995 21.1599C24.4086 19.6956 25 17.9173 25 16C25 10.9952 20.9706 6.93797 16 6.93797C11.0294 6.93797 7 10.9952 7 16C7 17.9173 7.59138 19.6956 8.6005 21.1599C9.72595 19.6631 12.3706 19.0207 16 19.0207C19.6294 19.0207 22.274 19.6631 23.3995 21.1599ZM21.9647 22.7862C21.672 21.7265 19.5694 21.0344 16 21.0344C12.4306 21.0344 10.328 21.7265 10.0353 22.7862C11.6233 24.2023 13.7119 25.062 16 25.062C18.2881 25.062 20.3767 24.2023 21.9647 22.7862ZM16 9.95865C13.5791 9.95865 12 11.7265 12 13.9862C12 17.4372 13.7609 19.0207 16 19.0207C18.2181 19.0207 20 17.4898 20 14.1876C20 11.8935 18.4142 9.95865 16 9.95865ZM14 13.9862C14 16.2711 14.8182 17.0069 16 17.0069C17.1777 17.0069 18 16.3004 18 14.1876C18 12.9294 17.2157 11.9724 16 11.9724C14.7337 11.9724 14 12.7939 14 13.9862Z" fill="#0095BF"/>
</g>
</svg>

<svg xmlns="http://www.w3.org/2000/svg" fill="none" viewBox="0 0 32 32"><path fill="#0095bf" fill-rule="evenodd" d="M16 27.076C9.925 27.076 5 22.117 5 16S9.925 4.924 16 4.924 27 9.883 27 16s-4.925 11.076-11 11.076m7.4-5.916A9.06 9.06 0 0 0 25 16c0-5.005-4.03-9.062-9-9.062S7 10.995 7 16c0 1.917.591 3.696 1.6 5.16 1.126-1.497 3.77-2.14 7.4-2.14s6.274.643 7.4 2.14m-1.435 1.626c-.293-1.06-2.396-1.752-5.965-1.752s-5.672.693-5.965 1.752A8.93 8.93 0 0 0 16 25.062c2.288 0 4.377-.86 5.965-2.276M16 9.96c-2.42 0-4 1.768-4 4.027 0 3.451 1.76 5.035 4 5.035 2.218 0 4-1.531 4-4.833 0-2.295-1.586-4.23-4-4.23m-2 4.027c0 2.285.818 3.02 2 3.02 1.178 0 2-.706 2-2.818 0-1.259-.784-2.216-2-2.216-1.266 0-2 .822-2 2.014" clip-rule="evenodd" style="mix-blend-mode:multiply"/></svg>
